X:1
T:Psalm 41
T:V 6
L:1/4
M:15/4
I:linebreak $
K:Bb
V:1 treble nm="Pipe Organ" snm="Org."
V:1
 G2 c c B2 c2 d c B2 A2 G |$[M:9/4] E F G G ^F G3 z |$[M:15/4] C2 G2 _A2 G B c d c2 =B2 c |$ %3
w: Ge- loofd sy God, die God van Is- ra- el!|Laat elk sy roem ver- tel!|Van e- wig- heid tot e- wig- heid gee eer|
[M:11/4] G G F E2 D2 C3 z |] %4
w: aan on- se God en HEER!|

